X: 1
T: Every Good Boy Does Fine
M: 6/8
L: 1/8
R: jig
K: Edor
EGB d2f|edB AGA|B2E-E2G|FAF D2B,|
EGB d2f|edB AGA|B2E-E2G|FED G2F:|
EBA B2E-|BAB-B2E|def edB|ABd BAF|
EBA B2E-|BAB-B2E|def gfe|dGB AFD:|
